assets/images/mercury-logo.svg

<?xml version="1.0" encoding="UTF-8" standalone="no"?>
<svg width="71px" height="81px" viewBox="0 0 71 81" version="1.1" xmlns="http://www.w3.org/2000/svg" xmlns:xlink="http://www.w3.org/1999/xlink">
    <!-- Generator: Sketch 3.7.2 (28276) - http://www.bohemiancoding.com/sketch -->
    <title>Page 1</title>
    <desc>Created with Sketch.</desc>
    <defs>
        <linearGradient x1="50%" y1="0%" x2="50%" y2="100%" id="linearGradient-1">
            <stop stop-color="#FFCE00" offset="0%"></stop>
            <stop stop-color="#FF8D00" offset="100%"></stop>
        </linearGradient>
    </defs>
    <g id="Page-1" stroke="none" stroke-width="1" fill="none" fill-rule="evenodd">
        <g id="Search-Results" transform="translate(-52.000000, -9.000000)" fill="url(#linearGradient-1)">
            <g id="Group-14" transform="translate(52.000000, 9.000000)">
                <g id="Group-12">
                    <path d="M5.70250124,64.211022 L4.26325641e-14,60.9186746 L4.26325641e-14,20.3062116 L35.1713804,0 L70.3426813,20.3062116 L70.3426813,60.9186746 L64.6403392,64.211022 L64.6403392,27.877763 C64.6403392,27.5339272 64.3609726,27.2545606 64.0171368,27.2545606 L62.0886317,27.2545606 L62.0886317,47.6359862 L58.9781909,42.8437744 L55.8681481,47.6359862 L55.8681481,27.2545606 L53.939643,27.2545606 C53.5954092,27.2545606 53.3160426,27.5339272 53.3160426,27.877763 L53.3160426,70.7489567 L50.1582449,72.5723213 L50.1582449,28.3091496 C50.1582449,27.8988548 49.8271437,27.5645699 49.4080938,27.5593965 L37.2813942,27.5593965 C36.8621453,27.5645699 36.5313625,27.8988548 36.5313625,28.3091496 L36.5313625,80.4397147 L35.5609018,81 C35.5599467,80.9784705 35.5574396,80.9569409 35.5535396,80.9353318 L26.0305209,28.3378026 C25.9804578,28.0616196 25.7152983,27.877763 25.4387572,27.9275078 L17.3372052,29.3943814 C17.060664,29.4445241 16.8768074,29.7095643 16.9268705,29.9861452 L25.1570824,75.4431514 L14.9541921,69.5524956 L14.9541921,28.2904456 C14.9541921,28.0122728 14.7308182,27.7862326 14.4449648,27.7814571 L6.21172846,27.7814571 C5.92587514,27.7862326 5.70250124,28.0122728 5.70250124,28.2904456 L5.70250124,64.211022 Z" id="Page-1"></path>
                </g>
            </g>
        </g>
    </g>
</svg>

<svg width="71" height="81" viewBox="0 0 71 81" xmlns="http://www.w3.org/2000/svg"><title>Page 1</title><defs><linearGradient x1="50%" y1="0%" x2="50%" y2="100%" id="a"><stop stop-color="#FFCE00" offset="0%"/><stop stop-color="#FF8D00" offset="100%"/></linearGradient></defs><path d="M5.703 64.211L0 60.919V20.306L35.171 0l35.172 20.306V60.92L64.64 64.21V27.878a.624.624 0 0 0-.623-.623H62.09v20.381l-3.11-4.792-3.11 4.792V27.255h-1.93a.624.624 0 0 0-.623.623v42.871l-3.158 1.823V28.31a.753.753 0 0 0-.75-.75H37.281a.752.752 0 0 0-.75.75v52.13l-.97.561a.485.485 0 0 0-.007-.065L26.03 28.338a.51.51 0 0 0-.592-.41l-8.102 1.466a.51.51 0 0 0-.41.592l8.23 45.457-10.203-5.89V28.29a.511.511 0 0 0-.509-.509H6.212a.511.511 0 0 0-.51.51v35.92z" fill="url(#a)" fill-rule="evenodd"/></svg>
